!!!COM: Schiørring, Niels
!!!CDT: 1743-1798
!!!OPR@@DA: Choral-Bog
!!!ONM: 49
!!!OTL@@DA: Jeſu! din ſøde Foreening
**kern	**fb	**kern	**kern	**kern	**kern	**kern	**kern	**kern
*part6	*part6	*part6	*part5	*part5	*part4	*part3	*part2	*part1
*staff8	*	*staff7	*staff6	*staff5	*staff4	*staff3	*staff2	*staff1
*clefF4	*	*clefC1	*clefF4	*clefC1	*clefF4	*clefC4	*clefC3	*clefC1
*k[b-]	*	*k[b-]	*k[b-]	*k[b-]	*k[b-]	*k[b-]	*k[b-]	*k[b-]
*F:	*	*F:	*F:	*F:	*F:	*F:	*F:	*F:
*M3/2	*	*M3/2	*M3/2	*M3/2	*M3/2	*M3/2	*M3/2	*M3/2
=1	=1	=1	=1	=1	=1	=1	=1	=1
*	*	*	*^	*^	*	*	*	*
2F	.	2f	2A	2F	2f	2c	2F	2A	2c	2f
2E	6	2g	2ryy@	2E	2c	2c	2E	2c	2c	2g
2F	.	2a	2ryy@	2F	2c	2f	2F	2c	2f	2a
=2	=2	=2	=2	=2	=2	=2	=2	=2	=2	=2
2C	6 4	2a	1.ryy	1C	1c	2f	2C	2c	2f	2a
2C	5 3	2g	.	.	.	2e	2C	2c	2e	2g
2AA	6	2cc	.	2AA	2c	2f	2AA	2c	2f	2cc
=3	=3	=3	=3	=3	=3	=3	=3	=3	=3	=3
*	*	*	*	*	*	*	*^	*	*	*
2BB-	.	2dd	2B-	2BB-	2dd	1f	2BB-	2BB-	2B-	2f	2dd
1FF	5	2cc	2A	2F	2cc	.	2F	1FF	2A	2f	2cc
.	6	2dd	2A	2F	2dd	[2f	2F	.	2A	[2f	2dd
=4	=4	=4	=4	=4	=4	=4	=4	=4	=4	=4	=4
2GG	7 4	(2cc	2d	2G	(2cc	2f]	(2G	2GG	(2d	(2f]	(2cc
2C	7	2b-)	2c	2C	2b-)	2e	2c)	2C	2c)	2e)	2b-)
2FF	.	2a	2c	2F	2a	2f	2F	2FF	2c	2f	2a
=5	=5	=5	=5	=5	=5	=5	=5	=5	=5	=5	=5
2C	.	2g	1.c	2C	2g	2e	2C	1.r	2c	2e	2g
2F	.	2a	.	2F	2a	2f	2F	.	2c	2f	2a
2E	5	2b-	.	2E	2b-	2g	2E	.	2c	2g	2b-
=6	=6	=6	=6	=6	=6	=6	=6	=6	=6	=6	=6
2F	.	2a	1.c	2F	2a	2f	2F	1.r	2c	2f	2a
2B-	2	2g	.	2B-	2g	2e	2B-	.	2c	2e	2g
2A	6	2cc	.	2A	2cc	2f	2A	.	2c	2f	2cc
=7	=7	=7	=7	=7	=7	=7	=7	=7	=7	=7	=7
2G	6 4	2cc	2e	2G	2cc	2g	2G	1.r	2e	2g	2cc
2F	6	2dd	1d	2F	2dd	2a	2F	.	2d	2a	2dd
2G	n	2bn	.	2G	2bn	2g	2G	.	2d	2g	2bn
=8	=8	=8	=8	=8	=8	=8	=8	=8	=8	=8	=8
*	*	*	*	*	*	*^	*	*	*	*	*
1.C	.	1.cc	1.c	1.C	1.cc	1.g	1.e\	1.C	1.r	1.e	1.g	1.cc
=9:|!	=9:|!	=9:|!	=9:|!	=9:|!	=9:|!	=9:|!	=9:|!	=9:|!	=9:|!	=9:|!	=9:|!	=9:|!
2BB-	2	2g	1.ryy	2BB-	1c	2e	1.r	2BB-	1.r	2c	2e	2g
2AA	6	2a	.	2AA	.	2f#X	.	2AA	.	2c	2f#X	2a
2GG	.	2b-	.	2GG	2d	2g	.	2GG	.	2d	2g	2b-
=10	=10	=10	=10	=10	=10	=10	=10	=10	=10	=10	=10	=10
1D	6 4	2b-	1.ryy	1D	1d	2g	1.r	[2D	1.r	2d	2g	2b-
.	5 n	2a	.	.	.	2fni	.	2D]	.	2d	2fni	2a
2C	6 -	2a	.	2C	2e-X	[2a	.	2C	.	2e-X	[2a	2a
=11	=11	=11	=11	=11	=11	=11	=11	=11	=11	=11	=11	=11
1.BB-	7	2dd	1.ryy	1BB-	2d	2a]	1.r	[2BB-	1.r	2d	2a]	2dd
.	6 4 2	2cc#X	.	.	2eni	2g	.	2BB-]	.	2ei	2g	2cc#X
.	6	2dd	.	2BB-	2d	2g#X	.	2BB-	.	2d	2g#X	2dd
=12	=12	=12	=12	=12	=12	=12	=12	=12	=12	=12	=12	=12
1.AA	#	1cc#X	1.ryy	1AA	1e	1a	1.r	1AA	1.r	1e	1a	1cc#X
.	.	2a	.	2AA	2c#X	2e	.	2AA	.	2c#X	2e	2a
=13	=13	=13	=13	=13	=13	=13	=13	=13	=13	=13	=13	=13
2G	4	2a	2c#X	2G	2a	2e	1.r	2G	1.r	2c#X	2e	2a
2F	6	2dd	2d	2F	2dd	2a	.	2F	.	2d	2a	2dd
2E	6	2ee	2c#	2E	2ee	2g	.	2E	.	2c#	2g	2ee
=14	=14	=14	=14	=14	=14	=14	=14	=14	=14	=14	=14	=14
2D	.	2ff	2d	2D	2ff	2.a	1.r	2D	1.r	2d	[2a	2ff
2A	8 #	2ee	2c#X	2A	2ee	.	.	2A	.	2c#X	(4a]	2ee
2B-	7	2dd	2d	2B-	2dd	2f	.	2B-	.	2d	2f	2dd
=15	=15	=15	=15	=15	=15	=15	=15	=15	=15	=15	=15	=15
2.F	6	2a	2d	2.F	2a	2f	1.r	2.F	1.r	2d	2.a	2a
.	.	2dd	4f	.	2dd	4a	.	.	.	(4f	.	2dd
4G	6 5	.	4e	4G	.	4b-	.	4G	.	4e)	4b-	.
2A	#	2cc#X	2e	2A	2cc#X	2a	.	2A	.	2e	2a	2cc#X
=16	=16	=16	=16	=16	=16	=16	=16	=16	=16	=16	=16	=16
1.D	.	1.dd	1.ryy	1.D	1.f	1.a	1.r	1.D	1.r	1.f	1.a	1.dd
=17	=17	=17	=17	=17	=17	=17	=17	=17	=17	=17	=17	=17
2E	nr6	2cc	1.ryy	2E	1c	2g	1.r	2E	1.r	2c	2g	2cc
2F	.	2a	.	2F	.	1f	.	2F	.	2c	2f	2a
2D	6	2b-	.	2D	2d	.	.	2D	.	2d	2f	2b-
=18	=18	=18	=18	=18	=18	=18	=18	=18	=18	=18	=18	=18
2AA	6	2cc	2ryy@	2AA	2c	2f	1.r	2AA	1.r	2c	2f	2cc
2C	7	2b-	1c	2C	2b-	2e	.	2C	.	2c	2e	2b-
2F	.	2a	.	2F	2a	2f	.	2F	.	2c	2f	2a
=19	=19	=19	=19	=19	=19	=19	=19	=19	=19	=19	=19	=19
2BB-	.	2dd	2B-	2BB-	2dd	2f	1.r	2BB-	1.r	2B-	2f	2dd
2C	.	2cc	2G	2C	2cc	2e	.	2C	.	2G	2e	2cc
4D	6	2b-	4d	4D	2b-	4f	.	(4D	.	(4d	(4f	2b-
4E	5	.	4c	4E	.	4g	.	4E)	.	4c)	4g)	.
=20	=20	=20	=20	=20	=20	=20	=20	=20	=20	=20	=20	=20
1F	9	1a	1c	1F	1a	2g	1.r	1F	1.r	1c	(2g	1a
2C	8	2g	2c	2C	2g	2e	.	2C	.	2c	2e	2g
=21	=21	=21	=21	=21	=21	=21	=21	=21	=21	=21	=21	=21
2FF	.	2a	1.ryy	2FF	2c	2.f	1.r	2F	2FF	2c	2.f	2a
2GG	7	2g	.	2GG	2B-	.	.	2G	2GG	2B-	.	2g
2AA	6	2f	.	2AA	2c	2f	.	4A	2AA	2c	2f	2f
.	.	.	.	.	.	.	.	4AA	.	.	.	.
=22	=22	=22	=22	=22	=22	=22	=22	=22	=22	=22	=22	=22
2BB-	.	2dd	2B-	2BB-	2dd	2f	1.r	2BB-	1.r	2B-	2f	2dd
2C	.	2cc	1G	2C	2cc	1e	.	2C	.	2G	2e	2cc
2C#X	7 5	2b-	.	2C#X	2b-	.	.	2C#X	.	2G	2e	2b-
=23	=23	=23	=23	=23	=23	=23	=23	=23	=23	=23	=23	=23
2D	.	2a	[1F	2D	2a	2f	1.r	2D	1.r	2F	2f	2a
2BB-	.	2b-	.	2BB-	2b-	2d	.	2BB-	.	2d	2.f	2b-
2Cni	4	2g	4F]	2Cni	2g	2cni	.	2Cni	.	(4c	.	2g
=24	=24	=24	=24	=24	=24	=24	=24	=24	=24	=24	=24	=24
1.FF	3	1.f	1.F	1.FF	1.f	1.c	1.A\	1.F	1.FF	1.A	1.f	1.f
*	*	*	*v	*v	*	*	*	*v	*v	*	*	*
*	*	*	*	*v	*v	*v	*	*	*	*
==	==	==	==	==	==	==	==	==
*-	*-	*-	*-	*-	*-	*-	*-	*-
!!!system-decoration: {(s1,s2,s3,s4)}{(s5,s6)}{(s7,s8)}
!!!RDF**kern: i = editorial accidental
!!!AGN: chorale
!!!EED: Derek Remeš
!!!EED2: Victor Phan
!!!END: 2023/11/28
!!!ENC: Wolfgang Drescher
!!!EEV: 2023/11/29
!!!title: @{ONM}. @{OTL}